X:100
T:Flours of Edinburgh
A:Wyresdale, Lancashire
B:E and J Winder, 1835-41
L:1/8
M:C|
O:England
Z:Richard Robinson 
%%RRN:"A good tune"
%%TUNEURL: http://www.leeds.ac.uk/music/Info/RRTuneBk/gettune/00000e93.html
%%ID:00000e93
K:G
(GF/E/) |\
D3E G3A | BABd B2AG | F3E DEFG | AFdF EFGE |
D3E G3A | BABd e3g | B2AG AGAc | B2G2 G2 "^1" ::
d2 |\
gfga b2ag | fefg a2gf | edef gfed | B2e2 e2g2 |
dBAG d2cB | edef g3a | B2AG AGAc | B2G2 G2 "^2" ::
GE |\
DEDE GEGA | BABc BdcB | AGAB cBcd | edef gab2 |
DEDE GEGA | BABd e2g2 | B2AG BAGA | B2G2 G2 "^3"::
d2 |\
gdfa b2ag | fefg a2gf | edef gfed | B2e2 e2G2 |
Bdg2 Bde2 | Add2 Gcc2 | B2AG BAGA | B2G2 G2 "^4" ::
